ui/StatusQ/src/assets/img/icons/gifCategories/trending.svg

<svg fill="none" height="20" viewBox="0 0 18 20" width="18" xmlns="http://www.w3.org/2000/svg"><path clip-rule="evenodd" d="m9.38206 9.00034c-.28455-.31792-.42025-.74198-.37314-1.16603l.30283-2.72546c.05391-.48514-.54802-.7521-.87144-.3865l-4.37559 4.94632c-.28547.32271-.05636.83133.3745.83133h1.94326c1.49003 0 2.64926 1.2951 2.48471 2.776l-.17944 1.6151c-.05391.4851.54802.7521.87144.3865l4.37561-4.9464c.2855-.3227.0563-.83125-.3745-.83125h-3.0606c-.4266 0-.83309-.18169-1.11764-.49961zm-1.83658 10.81746c-.32341.3656-.92534.0987-.87144-.3865l.70233-6.3209c.06582-.5924-.39787-1.1104-.99389-1.1104h-4.71793c-.64629 0-.989961-.7629-.56175-1.247l9.3512-10.570913c.3234-.365601.9254-.0986331.8715.386503l-.7641 6.87615c-.0329.29618.199.55521.497.55521h5.2765c.6463 0 .99.76287.5618 1.24693z" fill="#939ba1" fill-rule="evenodd"/></svg>

<svg width="18" height="20" viewBox="0 0 18 20" fill="none" xmlns="http://www.w3.org/2000/svg">
<path fill-rule="evenodd" clip-rule="evenodd" d="M9.38206 9.00034C9.09751 8.68242 8.96181 8.25836 9.00892 7.83431L9.31175 5.10885C9.36566 4.62371 8.76373 4.35675 8.44031 4.72235L4.06472 9.66867C3.77925 9.99138 4.00836 10.5 4.43922 10.5H6.38248C7.87251 10.5 9.03174 11.7951 8.86719 13.276L8.68775 14.8911C8.63384 15.3762 9.23577 15.6432 9.55919 15.2776L13.9348 10.3312C14.2203 10.0085 13.9911 9.49995 13.5603 9.49995H10.4997C10.0731 9.49995 9.66661 9.31826 9.38206 9.00034ZM7.54548 19.8178C7.22207 20.1834 6.62014 19.9165 6.67404 19.4313L7.37637 13.1104C7.44219 12.518 6.9785 12 6.38248 12H1.66455C1.01826 12 0.674589 11.2371 1.1028 10.753L10.454 0.182087C10.7774 -0.183514 11.3794 0.0834539 11.3255 0.56859L10.5614 7.44474C10.5285 7.74092 10.7604 7.99995 11.0584 7.99995H16.3349C16.9812 7.99995 17.3249 8.76282 16.8967 9.24688L7.54548 19.8178Z" fill="#939BA1"/>
</svg>
